build/img/sprites/company_link.svg

<svg width="20" height="25" viewBox="0 0 20 25" fill="none" xmlns="http://www.w3.org/2000/svg">
<path fill-rule="evenodd" clip-rule="evenodd" d="M11.694 0.215072L17.8206 5.31629C18.1718 5.60867 18.5323 7.29524 18.0578 7.87739L9.10259 18.8622L6.98749 17.0987L14.6177 8.10738C14.8443 7.72348 15.2125 7.75757 15.0429 7.09561L14.5272 6.65476L10.9488 3.64281C10.6164 3.44171 10.5182 3.17057 9.92867 3.48043L9.63083 3.79437L2.1409 13.2042L0 11.464L9.09579 0.408444C9.44279 -0.0128742 11.2437 -0.159469 11.6938 0.215154L11.694 0.215072Z" fill="#4988D1"/>
<path fill-rule="evenodd" clip-rule="evenodd" d="M7.94303 24.6851L1.81643 19.5838C1.46517 19.2912 1.10466 17.605 1.57923 17.0228L10.5342 6.03766L12.6493 7.80127L5.0189 16.793C4.79226 17.1765 4.42437 17.1427 4.59398 17.8046L5.10952 18.2451L8.68783 21.2575C9.02032 21.4586 9.11873 21.7294 9.70826 21.4201L10.0059 21.106L17.4959 11.6961L19.6368 13.4361L10.5411 24.4916C10.1941 24.9133 8.39285 25.0597 7.94311 24.6851H7.94303Z" fill="#78213A"/>
</svg>

<svg width="20" height="25" viewBox="0 0 20 25" fill="none" xmlns="http://www.w3.org/2000/svg"><path fill-rule="evenodd" clip-rule="evenodd" d="M11.694.215l6.127 5.101c.35.293.711 1.98.237 2.561L9.103 18.862 6.987 17.1l7.63-8.992c.227-.384.595-.35.426-1.011l-.516-.441-3.578-3.012c-.333-.201-.43-.472-1.02-.163l-.298.314-7.49 9.41L0 11.464 9.096.408c.347-.42 2.148-.567 2.598-.193z" fill="#4988D1"/><path fill-rule="evenodd" clip-rule="evenodd" d="M7.943 24.685l-6.127-5.101c-.35-.293-.711-1.979-.237-2.561l8.955-10.985L12.65 7.8l-7.63 8.992c-.227.384-.595.35-.425 1.012l.516.44 3.578 3.012c.332.202.43.472 1.02.163l.298-.314 7.49-9.41 2.14 1.74-9.095 11.056c-.347.421-2.148.568-2.598.193z" fill="#78213A"/></svg>
